X:115
T:Smyth's Hornpipe. Le4.115
T:Washington Hp,aka. Le4.115
T:Tumbler's Hp,aka. Le4.115
M:C
L:1/8
Q:1/4=120
B:L.Leadley MS#4 c1850
Z:Village Music Project, 2016 Ruairidh Greig
K:Bb
F|Bcde fBB2|fBgB bBB2|GeFd EcDB|cded BAGF|
Bcde fBB2|fBgB aBB2|GeFd EcDB|ecAcB2:|
|:(de)|fBB2gBB2|gaba gfed|efgf edcB|cded cBAG|
Bcde fBB2|fBgB aBB2|GeFd EcDB|ecAcB2:|

